assets/img/braze_icons/lock-04.svg

<svg fill="none" height="24" viewBox="0 0 24 24" width="24" xmlns="http://www.w3.org/2000/svg"><path clip-rule="evenodd" d="m6 8v1.70835c-1.24473 1.41025-2 3.26275-2 5.29165 0 4.4183 3.58172 8 8 8 4.4183 0 8-3.5817 8-8 0-2.0289-.7553-3.8814-2-5.29165v-1.70835c0-3.31371-2.6863-6-6-6-3.31371 0-6 2.68629-6 6zm6-4c-2.20914 0-4 1.79086-4 4v.07026c1.17669-.68068 2.5429-1.07026 4-1.07026s2.8233.38958 4 1.07026v-.07026c0-2.20914-1.7909-4-4-4zm1 10c0-.5523-.4477-1-1-1s-1 .4477-1 1v2c0 .5523.4477 1 1 1s1-.4477 1-1z" fill="#801ed7" fill-rule="evenodd"/></svg>

<svg width="24" height="24" viewBox="0 0 24 24" fill="none" xmlns="http://www.w3.org/2000/svg">
<path fill-rule="evenodd" clip-rule="evenodd" d="M6 8V9.70835C4.75527 11.1186 4 12.9711 4 15C4 19.4183 7.58172 23 12 23C16.4183 23 20 19.4183 20 15C20 12.9711 19.2447 11.1186 18 9.70835V8C18 4.68629 15.3137 2 12 2C8.68629 2 6 4.68629 6 8ZM12 4C9.79086 4 8 5.79086 8 8V8.07026C9.17669 7.38958 10.5429 7 12 7C13.4571 7 14.8233 7.38958 16 8.07026V8C16 5.79086 14.2091 4 12 4ZM13 14C13 13.4477 12.5523 13 12 13C11.4477 13 11 13.4477 11 14L11 16C11 16.5523 11.4477 17 12 17C12.5523 17 13 16.5523 13 16V14Z" fill="#801ED7"/>
</svg>
